svgs/duotone/gift.svg

<svg xmlns="http://www.w3.org/2000/svg" viewBox="0 0 512 512"><!--! Font Awesome Pro 6.6.0 by @fontawesome - https://fontawesome.com License - https://fontawesome.com/license (Commercial License) Copyright 2024 Fonticons, Inc. --><defs><style>.fa-secondary{opacity:.4}</style></defs><path class="fa-secondary" d="M0 160c0-17.7 14.3-32 32-32l41.6 0c7.3 14.2 18.3 26.2 31.8 34.7c6.8 4.2 14.1 7.5 21.9 9.8c3.9 1.1 7.9 2 12 2.6c2.1 .3 4.1 .5 6.2 .7c1 .1 2.1 .1 3.2 .2s2.1 .1 3.2 .1l64 0 8 0 0 80L32 256c-17.7 0-32-14.3-32-32l0-64zM32 288l192 0 0 224L80 512c-26.5 0-48-21.5-48-48l0-176zM288 176l72 0c34.2 0 63.8-19.5 78.4-48l41.6 0c17.7 0 32 14.3 32 32l0 64c0 17.7-14.3 32-32 32l-192 0 0-80zm0 112l192 0 0 176c0 26.5-21.5 48-48 48l-144 0 0-224z"/><path class="fa-primary" d="M190.5 68.8L225.3 128l-1.3 0-8 0-64 0c-22.1 0-40-17.9-40-40s17.9-40 40-40l2.2 0c14.9 0 28.8 7.9 36.3 20.8zM256 85.5l-24.1-41C215.7 16.9 186.1 0 154.2 0L152 0C103.4 0 64 39.4 64 88s39.4 88 88 88l64 0 8 0 0 80 64 0 0-80 72 0c48.6 0 88-39.4 88-88s-39.4-88-88-88l-2.2 0c-31.9 0-61.5 16.9-77.7 44.4L256 85.5zm65.5-16.7C329.1 55.9 342.9 48 357.8 48l2.2 0c22.1 0 40 17.9 40 40s-17.9 40-40 40l-73.3 0 34.8-59.2zM288 512l0-224-64 0 0 224 64 0z"/></svg>

<svg xmlns="http://www.w3.org/2000/svg" viewBox="0 0 512 512"><!--! Font Awesome Pro 6.5.2 by @fontawesome - https://fontawesome.com License - https://fontawesome.com/license (Commercial License) Copyright 2024 Fonticons, Inc. --><defs><style>.fa-secondary{opacity:.4}</style></defs><path class="fa-secondary" d="M73.6 128c14.6 28.5 44.2 48 78.4 48h64 8v80H32c-17.7 0-32-14.3-32-32V160c0-17.7 14.3-32 32-32H73.6zM480 256H288V176h72c34.2 0 63.8-19.5 78.4-48H480c17.7 0 32 14.3 32 32v64c0 17.7-14.3 32-32 32zM32 288H224V512H80c-26.5 0-48-21.5-48-48V288zM288 512V288H480V464c0 26.5-21.5 48-48 48H288z"/><path class="fa-primary" d="M190.5 68.8L225.3 128H224h-8H152c-22.1 0-40-17.9-40-40s17.9-40 40-40h2.2c14.9 0 28.8 7.9 36.3 20.8zM256 85.5l-24.1-41C215.7 16.9 186.1 0 154.2 0H152C103.4 0 64 39.4 64 88s39.4 88 88 88h64 8v80h64V176h72c48.6 0 88-39.4 88-88s-39.4-88-88-88h-2.2c-31.9 0-61.5 16.9-77.7 44.4L256 85.5zm65.5-16.7C329.1 55.9 342.9 48 357.8 48H360c22.1 0 40 17.9 40 40s-17.9 40-40 40H286.7l34.8-59.2zM288 512V288H224V512h64z"/></svg>
